!!!COM: Music21
!!!OTL: Alalá
!!!OMV: pezas_alalas_alala-12_alala-partitura.musicxml
**kern
*I"Bagpipes
*I'Bag
*clefG^2
*k[]
*M3/4
=1
!LO:TX:a:t=Adagio
*MM72
!LO:TX:a:t=[quarter]=72
2r
4aa
=
4ddd
4ddd
4eee
=
2fff
4ggg
=
4fff
4ddd
4fff
=
4aaa
4ggg
4fff
=
2ggg
4aaa
=
4fff
[2eee
=
2eee;]
4aa
=
4ddd
4ddd
4eee
=
2fff
4ggg
=
4fff
4ddd
4fff
=
4aaa
4ggg
4fff
!!linebreak:original
=
2ggg
4aaa
=
4fff
[2eee
=
2eee;]
4aa
=
4ddd
4ddd
4eee
=
2fff
4ggg
=
4fff
4ddd
4fff
=
4eee
4bb
4ccc
=
2ddd
4ccc
=
4bb
[2aa
=
2aa;]
4aa
=
4ddd
4ddd
4eee
=
2fff
4ggg
!!linebreak:original
=
4fff
4ddd
4fff
!!linebreak:original
=
4eee
4bb
4ccc
=
2ddd
4ccc
=
4bb
[2aa
=
2aa;]
4r
=
*-
